X:1
T:Title
%%score { ( 1 3 ) | ( 2 4 ) }
L:1/8
M:4/4
K:Ab
V:1 treble nm="Grand Piano"
V:3 treble 
V:2 bass 
V:4 bass 
V:1
 z4 z2[Q:1/4=100] [A,C]>[B,D] | [CE]2 [Ec]2 [Ec]>[Fd] [Ec]>[DB] | [CA]2 [DF]2 [CE]2 E>A | %3
[M:3/4] z2 G4 |[M:1/4] F>G |[M:4/4] z2 [CE]4 z2 | [CE]2 [Ec]2 [Ec]>[Fd] [Ec]>[DB] | %7
[M:3/4] [CA]2 [DF]2 [CE]2 |[M:1/4] c>c |[M:4/4] e>B c>A G2 [=DF]2 |[M:3/4] E6 |[M:1/4] E>F | %12
[M:4/4] G2 [Gd]2 [Gd]2 c>B | A2 e2 e2 [Ec]>[Ec] | [=Dc]2 [DB]2 [DF]>[DG] [DA]>[Dc] | %15
 z2 B4[K:bass] z2[K:treble] | [CE]2 [Ec]2 [Ec]>[Fd] [Ec]>[DB] | [CA]2 [DF]2 [CE]2 E>E | %18
 F2 [Fd]2 [Ec]2 [DEB]2 |[M:3/4] [CEA]6 |] %20
V:2
 z4 z2 [A,,E,]>[A,,E,] | [A,,A,]2 [A,,A,]2 [A,,A,]>[A,,A,] [A,,A,]>[A,,A,] | %2
 [A,,E,]2 [A,,A,]2 [A,,A,]2 C>C |[M:3/4] z2 D4 |[M:1/4] D>D | %5
[M:4/4] [A,,A,]>[A,,A,] [A,,A,]>A,, A,,2 [A,,E,A,]>[A,,E,] | %6
 [A,,A,]2 [A,,A,]2 [A,,A,]>[A,,A,] [A,,A,]>[A,,A,] |[M:3/4] [A,,E,]2 [A,,A,]2 [A,,A,]2 | %8
[M:1/4] [A,E]>[A,E] |[M:4/4] [G,B,E]>[E,G,E] [A,E]>[A,CE] [B,E]2 [B,,A,]2 |[M:3/4] [E,G,]6 | %11
[M:1/4] [E,G,]>[E,A,=D] |[M:4/4] [E,B,D]2 [E,B,]2 [E,B,]2 [E,G,E]>[E,DE] | %13
 [A,CE]2 [A,CA]2 [A,CA]2[K:bass] [A,,A,]>[A,,A,] | %14
 [B,,F,]2 [B,,F,]2 [B,,A,]>[B,,G,] [B,,F,]>[B,,A,] | [E,E]6 z2 | %16
 [A,,A,]2 [A,,A,]2 [A,,A,]>[A,,A,] [A,,A,]>[A,,A,] | [A,,E,]2 [A,,A,]2 [A,,A,]2 [C,A,]>[C,A,] | %18
 [D,A,D]2 [D,A,]2 [E,A,]2 E,2 |[M:3/4] A,,6 |] %20
V:3
 x8 | x8 | x8 |[M:3/4] A>G z z/ B,/ B,2 |[M:1/4] x2 |[M:4/4] [DF]>[CE] z z/ A,/ A,2 C>[B,D] | x8 | %7
[M:3/4] x6 |[M:1/4] x2 |[M:4/4] x8 |[M:3/4] x6 |[M:1/4] x2 |[M:4/4] x8 | x8 | x8 | %15
 c2 z2 z z/[K:bass] D,/ C>[K:treble]D | x8 | x8 | x8 |[M:3/4] x6 |] %20
V:4
 x8 | x8 | x8 |[M:3/4] [E,B,D]>[E,B,D] [E,B,]>E, E,2 |[M:1/4] x2 |[M:4/4] x8 | x8 |[M:3/4] x6 | %8
[M:1/4] x2 |[M:4/4] x8 |[M:3/4] x6 |[M:1/4] x2 |[M:4/4] x8 | x6[K:bass] x2 | x8 | %15
 A,2 G,4 [C,E,A,]>[B,,E,B,] | x8 | x8 | x8 |[M:3/4] x6 |] %20

